X: 1770
T: Sevgim Bitti mi
C: Ârif Sâmi Toker
O: Turkey
F: http://compmusic.upf.edu/node/140
N: buselik--sarki--duyek--sevgim_bitti_mi--arif_sami_toker
N: makam= buselik
N: form= sarki
N: usul= duyek = 8/4
M: 8/4
L: 1/16
K: C    
Q: 1/4=192
%%MIDI tuningsystem comma53
z2 e2 e2 e2 e2 f2 e2 d2  | f3e d2 c2 d3c B4  | \
w:   |   | 
z2 d2 d2 d2 d2 e2 d2 c2  | 
w:   | 
d2 B2 c2 d2 e8  | z2 a4 b2 c'3b a2 g2  | \
w:   |   | 
a3g f2 e2 f3e d4  | z2 e4 f2 ef de cd Bc  | 
w:   |   | 
A8 A8  | z2 e2 e2 e2 e2 f2 e2 d2  | f3e d2 c2 d3c B4  | \
w:   |   |   | 
z2 d2 d2 d2 d2 e2 d2 c2  | 
w:   | 
d2 B2 c2 d2 e8  | z2 a4 b2 c'3b a2 g2  | \
w:   |   | 
a3g f2 e2 f3e d4  | z2 e4 f2 ef de cd Bc  | 
w:   |   | 
A8 A8  | e4 e4 e4 d2 c2  | d4 e4 A2 c2 e4  | \
w:   |   |   | 
z2 d4 f2 e2 d2 c2 B2  | c2 B2 A2 ^G2 A4 z4  | 
w:   |   | 
a4 a4 a4 z4  | b2 b4 a2 g8  | f2 e4 f4 a4 f2  | \
w:   |   |   | 
e2 d2 e2 e8 z2  | f2 e2 d2 c2 B2 A4 e4 e4 e4 d2 c2 d4 e4 A2 c2 e4 z2  | 
w:   |   | 
d4 f2 e2 d2 c2 B2 c2  | B2 A2 ^G2 A4 z4 a4 a4 a4 z4 b2  | \
w:   |   | 
b4 a2 g8 f2  | 
w:   | 
e4 f4 a4 f2 e2  | d2 e2 e8 z2 f2  | e2 d2 c2 d2 e4 e4  | \
w:   |   |   | 
e4 e4 z4 z2 f4 e2 d2 ^c2 d4 d4  | 
w:   | 
d4 d4 z4 z2 e4 d2 c2 B2 c4 A4  | c4 e4 a4 b2 g2  | \
w:   |   | 
f2 e2 d8 B2 c6 B4 e4 c2 B2  | 
w:   | 
A2 ^G2 A8 e4  | e4 e4 z4 z2 f4 e2 d2 ^c2 d4 d4  | \
w:   |   | 
d4 d4 z4 z2 e4 d2 c2 B2 c4 A4  | 
w:   | 
c4 e4 a4 b2 g2  | f2 e2 d8 B2 c6 B4 e4 c2 B2  | \
w:   |   | 
A2 ^G2 A8 z2 a4 b2 c'2 b2 a2 g2 a2 g2  | 
w:   | 
a2 b2 c'8 c'4  | c'4 c'4 b4 a2 g2  | \
w:   |   | 
a2 b2 c'4 z4 d'2 c'2  | b4 d'2 c'2 b4 c'2 b2  | 
w:   |   | 
a4 c'2 b2 a4 b2 a2  | g4 b2 a2 g4 z4  | \
w:   |   | 
b2 g2 f2 e2 e4 z2 c'2  | b2 a2 g2 f2 e4 z2 e4 a2 g2 b6 z2 a4 g2 f3e f4 z4  | 
w:   |   | 
e2 f2 e8 z4  | e2 g2 f2 e2 e4 z2 f2  | \
w:   |   | 
e2 d2 c2 d2 e4 e2 f6 g4 a4 z2 f4 e2 d8 f4  | 
w:   | 
e4 d8 e2 d2  | c2 B2 B8 A4  | c4 e4 a4 b2 g2  | \
w:   |   |   | 
f2 e2 d8 B2 c6 B4 e4 c2 B2  | 
w:   | 
A2 ^G2 A8 z2 e2  | e2 e2 e2 f2 e2 d2 f3e  | \
w:   |   | 
d2 c2 d3c B4 z2 d2  | d2 d2 d2 e2 d2 c2 d2 B2  | 
w:   |   | 
c2 d2 e8 z2 a4 b2 c'3b a2 g2 a3g  | \
w:   | 
f2 e2 f3e d4 z2 e4 f2 ef de cd Bc A8 A8 z2 e2  | 
w:   | 
e2 e2 e2 f2 e2 d2 f3e  | d2 c2 d3c B4 z2 d2  | \
w:   |   | 
d2 d2 d2 e2 d2 c2 d2 B2  | 
w:   | 
c2 d2 e8 z2 a4 b2 c'3b a2 g2 a3g  | \
w:   | 
f2 e2 f3e d4 z2 e4 f2 ef de cd Bc A8 A8 e4  | 
w:   | 
e4 e4 d2 c2 d4  | e4 A2 c2 e4 z2 d4 f2 e2 d2 c2 B2 c2 B2  | \
w:   |   | 
A2 ^G2 A4 z4 a4  | 
w:   | 
a4 a4 z4 b2 b4 a2 g8 f2 e4 f4 a4 f2 e2 d2  | \
w:   | 
e2 e8 z2 f2 e2  | d2 c2 B2 A4 e4 e4 e4 d2 c2 d4 e4 A2 c2 e4 z2 d4  | 
w:   |   | 
f2 e2 d2 c2 B2 c2 B2 A2  | ^G2 A4 z4 a4 a4 a4 z4 b2 b4  | \
w:   |   | 
a2 g8 f2 e4  | 
w:   | 
f4 a4 f2 e2 d2 e2  | e8 z2 f2 e2 d2  | \
w:   |   | 
c2 d2 e4 e4 e4  | e4 z4 z2 f4 e2  | 
w:   |   | 
d2 ^c2 d4 d4 d4  | d4 z4 z2 e4 d2  | \
w:   |   | 
c2 B2 c4 A4 c4  | e4 a4 b2 g2 f2 e2  | 
w:   |   | 
d8 B2 c6  | B4 e4 c2 B2 A2 ^G2  | A8 e4 e4  | \
w:   |   |   | 
e4 z4 z2 f4 e2  | d2 ^c2 d4 d4 d4  | 
w:   |   | 
d4 z4 z2 e4 d2  | c2 B2 c4 A4 c4  | e4 a4 b2 g2 f2 e2  | \
w:   |   |   | 
d8 B2 c6  | B4 e4 c2 B2 A2 ^G2  | 
w:   |   | 
A8 z2 a4 b2  | c'2 b2 a2 g2 a2 g2 a2 b2  | \
w:   |   | 
c'8 c'4 c'4  | c'4 b4 a2 g2 a2 b2  | 
w:   |   | 
c'4 z4 d'2 c'2 b4  | d'2 c'2 b4 c'2 b2 a4  | \
w:   |   | 
c'2 b2 a4 b2 a2 g4  | b2 a2 g4 z4 b2 g2  | 
w:   |   | 
f2 e2 e4 z2 c'2 b2 a2  | g2 f2 e4 z2 e4 a2  | \
w:   |   | 
g2 b6 z2 a4 g2  | f3e f4 z4 e2 f2  | 
w:   |   | 
e8 z4 e2 g2  | f2 e2 e4 z2 f2 e2 d2  | \
w:   |   | 
c2 d2 e4 e2 f6  | g4 a4 z2 f4 e2  | 
w:   |   | 
d8 f4 e4  | d8 e2 d2 c2 B2  | B8 A4 c4  | \
w:   |   |   | 
e4 a4 b2 g2 f2 e2  | d8 B2 c6  | B4 e4 c2 B2 A2 ^G2  | 
w:   |   |   | 
A8 e2 f6  | e4 d2 c2 f2 e4 e4 z4 d4 f4 e2  | \
w:   |   | 
d4 e2 c4 B2 B8 g4 g2 g2 g8 a4 g2 f2 f8 f2 a6 g2 b6 g2 f4 e2 e8 z2 f2 e2 d2 c2 B2  | 
w:   | 
A4 e2 f6 e4  | d2 c2 f2 e4 e4 z4 d4 f4 e2 d4  | \
w:   |   | 
e2 c4 B2 B8  | g4 g2 g2 g8  | 
w:   |   | 
a4 g2 f2 f8  | f2 a6 g2 b6  | g2 f4 e2 e8  | \
w:   |   |   | 
z2 c'2 b2 a2 g2 f2 e4  | z4 a2 a2 a4 a4  | 
w:   |   | 
z4 g2 b2 a4 b4  | c'4 b2 a6 b4  | a2 g2 g8 g4  | \
w:   |   |   | 
g4 g8 a2 a4 g2 f3e f4 e2 f6 g4 a4 g2 f2  | 
w:   | 
e2 f2 e8 z2 c'2  | b2 a2 g2 f2 e4 g4  | \
w:   |   | 
g4 g8 a2 g4 f2 e8 B2 c6 B4 e4 c2 B2  | 
w:   | 
A2 ^G2 A8 B2 c6 B4 d4 c2 B2  | A2 ^G2 A8 B2 c6 B4 d4 c2 B2  | \
w:   |   | 
A2 ^G2 A8 |
w:   | 


